X:1
T:Blow the Man Down
T:Blow the Man Down
T:Arr. by Seth Bingham
T:2 There was an old skipper, I don'r know his name,   Cho. Altought he once played a remarkable game,    Cho. 3 For his ship lay belcamed in the tropical seas,   Cho. And he whistled all day, but in vain for a breeze,*   Cho. 4 But a seal heard his whistle and loudly did call, 1 Cho. "Roll up your white canvas, jib, spanker, and all."   Cho. 
T:* During a calm, sailor whistle, believing a breeze will come in answer 1 Seals are said to be fond of music 
C:Arr. by Seth Bingham
%%score 1 2 { ( 3 5 ) | 4 }
L:1/8
Q:1/4=100
M:3/8
K:D
V:1 treble nm="Soprano"
V:2 bass nm="Men"
V:3 treble nm="Piano"
V:5 treble 
V:4 bass 
V:1
"^Solo""^Allegro" A | A3/2 B/ A | F D F | A3/2 B/ A | F2"^Chorus" D/ F/ | A3 | B3 | G F G | %8
w: I'll|sing you a|song, a good|song of the|sea, To my|aye,|aye,|blow the man|
 E2"^Solo" E | E3/2 F/ E | E C E | G3/2 G/ G | B3 |"^Chorus" A A A | A2 G | F3/2 E/ F | %16
w: down! And|trust that you'll|join in the|cho\- rus with|me;|Give me some|time to|blow the man|
"^.""^.""^t" D2 :| %17
w: down.|
V:2
 z | z3 | z3 | z3 | z2 D,/ F,/ | A,3 | B,3 | G, F, G, | E,2 z | z3 | z3 | z3 | z3 | A, A, A, | %14
 A,2 G, | F,3/2 E,/ F, | D,2 :| %17
V:3
!f! [A,A] | A>BA | FDF | A>BA | [DF]2 D/F/ | !>![A,A]3 | !>![B,G]3 | !>!G!>!F!>!G | !>!E2!f! E | %9
 E>FE | [A,CE]CE | G>!<(!GG | [B,DFB]3!<)! |!ff! [A,CFA].[A,A].[A,A] | !>![A,A]2 !>![G,G] | %15
 !>![F,F]>!>![E,E]!>![F,F] | !>![D,D]2 :| %17
V:4
 z | [D,,A,,D,]2 z | [D,F,A,]2 z | [D,,A,,D,]2 z | [D,F,A,]2 z | [D,,D,]3 | [B,,,B,,]3 | %7
 !>![G,,G,]!>![F,,F,]!>![G,,G,] | !>![E,,E,]2 z | [E,,,E,,]2 z | [A,,,E,,A,,]2 z | [E,,,E,,]2 z | %12
 [B,,,,B,,,][C,,,C,,][D,,,D,,] | [F,,,F,,]2 z | [A,,,A,,]2 [G,,,G,,] | %15
 [F,,,F,,]>[E,,,E,,][F,,,F,,] |"^.""^." [D,,,D,,]2 :| %17
V:5
 x | [DF]2 z | D2 z | [EF]2 z | x3 |x[DF][DF] |x[^DF][DF] | x3 |x[G,B,] z | [G,B,]2 z | x3 | %11
 [B,E]2 z | x3 | x3 | A,[CE] x | x3 | D,"^.""^."[F,A,] :| %17

